img/quickwin.svg

<svg width="210" height="20" viewBox="0 0 210 20" fill="none" xmlns="http://www.w3.org/2000/svg">
<g clip-path="url(#clip0_2693_204784)">
<path d="M40.1099 0H37.6769L36.0131 10.4977C35.7695 12.0884 36.2289 13.7069 37.2801 14.9286C38.3313 16.1538 39.8558 16.8535 41.4708 16.8535H48.2199C50.8826 16.8535 53.1659 14.953 53.6498 12.3321L56.041 0H53.608L51.3386 11.535C50.8965 13.3484 49.285 14.6154 47.4159 14.6154H42.3375C41.1402 14.6154 40.0124 14.0898 39.2432 13.1709C38.474 12.2555 38.1538 11.0512 38.3626 9.8747L40.1099 0Z" fill="#DA0003"/>
<path d="M56.8641 0L54.4416 12.4852C53.8916 15.4856 51.2742 17.6645 48.2181 17.6645H41.4691C39.6208 17.6645 37.8701 16.8604 36.6657 15.4577C35.4614 14.055 34.9324 12.2033 35.2143 10.3759L36.8572 0H34.6435L33.0632 8.94187C32.5759 11.6916 33.3278 14.497 35.1203 16.6342C36.9164 18.7748 39.5443 20 42.3393 20H47.4176C51.7754 20 55.538 17.0449 56.5683 12.8089L59.1475 0H56.8607H56.8641Z" fill="#DA0003"/>
<path d="M64.5921 0H62.1974L58.3164 19.9861H60.6624L64.5921 0Z" fill="#DA0003"/>
<path d="M65.4141 0L61.4844 19.9861H63.8721L67.7566 0H65.4141Z" fill="#DA0003"/>
<path d="M157.893 0H155.502L151.617 19.9861H153.963L157.893 0Z" fill="white"/>
<path d="M158.719 0L154.789 19.9861H157.173L161.058 0H158.719Z" fill="white"/>
<path d="M78.7392 3.28223C74.7887 3.28223 71.5586 6.56103 71.5586 10.5116V10.8562C71.5586 14.1211 74.2144 16.7768 77.4792 16.7768H90.4935L90.9147 14.6188H77.6185C76.5081 14.6188 75.4604 14.1315 74.7434 13.2857C74.0264 12.4399 73.7201 11.3261 73.9011 10.2297L74.0334 9.43259C74.4232 7.08661 76.435 5.38456 78.8123 5.38456H92.7072L93.1145 3.28223H78.7392Z" fill="#DA0003"/>
<path d="M77.4796 17.581C73.7692 17.581 70.7515 14.5632 70.7515 10.8528V10.5082C70.7515 6.11214 74.3401 2.47135 78.7397 2.47135H93.2715L93.7518 -0.00341797H78.8127C73.7901 -0.00341797 69.5472 3.59213 68.7257 8.54514L68.5935 9.34221C68.1514 12.0015 68.8963 14.7025 70.6401 16.7595C72.3804 18.8166 74.9283 19.9931 77.6224 19.9931L89.8744 19.9827L90.3408 17.5775H77.4831L77.4796 17.581Z" fill="#DA0003"/>
<path d="M100.684 0L98.832 9.62061H110.858L116.831 0H114.161L109.399 7.31291L101.63 7.30247L103.047 0H100.684Z" fill="#DA0003"/>
<path d="M99.8642 0H97.4938L93.6094 19.9861H96.018L99.8642 0Z" fill="#DA0003"/>
<path d="M112.611 19.9862H114.86L115.173 17.2783C115.403 15.1968 114.804 13.0736 113.614 11.7405C112.841 10.8808 111.894 10.4248 110.867 10.4248H98.6815L96.8438 19.9828H99.1688L100.589 12.6803H108.967C110.178 12.6803 111.313 13.2163 112.082 14.1491C112.851 15.082 113.161 16.2967 112.931 17.4871L112.615 19.9828L112.611 19.9862Z" fill="#DA0003"/>
<path d="M114.608 9.18204L120.587 0H117.782L111.75 9.71458C112.665 9.91298 113.504 10.4142 114.211 11.2043C115.551 12.701 116.226 15.0644 115.972 17.3686L115.669 19.9861H118.029L118.228 18.4198C118.729 15.6805 118.005 12.882 116.23 10.7275C115.746 10.1427 115.199 9.62409 114.608 9.18204Z" fill="#DA0003"/>
<path d="M191.426 19.9861H187.215L191.099 0H195.311L191.426 19.9861Z" fill="white"/>
<path d="M196.085 19.9861H192.949L196.834 0H199.97L196.085 19.9861Z" fill="white"/>
<path d="M199.663 19.9861H197.605L201.486 0H203.544L199.659 19.9861H199.663Z" fill="white"/>
<path d="M202.693 19.9861H201.172L205.06 0H206.581L202.696 19.9861H202.693Z" fill="white"/>
<path d="M205.192 19.9861H204.211L208.095 0H209.077L205.192 19.9861Z" fill="white"/>
<path d="M126.485 0L124.703 9.14375L127.035 16.7456H129.388L135.458 8.49983L137.067 0H134.776L133.367 7.09015L128.595 13.9053L126.997 8.92447L128.741 0H126.485Z" fill="white"/>
<path d="M137.891 0.000125427L136.23 8.76796L138.709 16.7422H140.797L147.243 8.19713L148.754 -0.00335526H146.373C146.255 0.574438 144.97 7.0868 144.97 7.0868L140.185 13.8567L138.611 8.91763C138.611 8.91763 140.317 0.0941039 140.338 -0.00683594H137.894L137.891 0.000125427Z" fill="white"/>
<path d="M149.571 0L147.997 8.53463L141.196 17.5531H138.112L135.644 9.61016L129.797 17.5531H126.442L123.876 9.189L125.665 0H123.187L121.395 9.1716L124.771 19.9861H130.984L134.687 14.6676L136.361 19.9861H142.574C142.655 19.8851 150.135 9.19248 150.135 9.1716L151.927 0H149.574H149.571Z" fill="white"/>
<path d="M187.327 0L184.003 17.5183H181.277L168.708 3.71737H167.438L164.566 19.9861H166.846L169.217 7.77933L180.17 19.9861H185.698L189.582 0H187.327Z" fill="white"/>
<path d="M166.761 2.90985H169.065L181.637 16.7108H183.336L186.507 0H184.056L181.606 12.4574L170.732 0H165.174L161.289 19.9861H163.75L166.761 2.90985Z" fill="white"/>
<path d="M29.5742 4.54577C27.9 1.69857 24.938 0 21.6452 0H11.5443C7.44406 0 3.59094 2.16847 1.48861 5.66307C1.32154 5.93804 1.21364 6.14688 1.15446 6.26175C-0.432727 9.15767 -0.380516 12.5792 1.29369 15.4299C2.9679 18.2771 5.92996 19.9756 9.21921 19.9756H19.3201C20.6115 19.9756 21.875 19.7529 23.0723 19.3491L23.5109 19.9756H25.7316L19.3271 10.6822H17.0264L19.7413 14.5736C19.6021 14.5841 19.4629 14.5945 19.3201 14.5945H9.21921C7.83737 14.5945 6.64002 13.9053 5.93344 12.7045C5.22338 11.5002 5.20598 10.0522 5.88819 8.83049L5.94736 8.71563C5.94736 8.71563 5.99957 8.61121 6.10051 8.44414C7.23522 6.55761 9.32363 5.3881 11.5478 5.3881H21.6487C23.0306 5.3881 24.2279 6.07727 24.9345 7.27811C25.6445 8.48242 25.6619 9.93039 24.9797 11.1521L24.9206 11.267C24.9206 11.267 24.8684 11.3714 24.7674 11.5385C24.5307 11.9318 24.2453 12.2903 23.932 12.6175L22.5815 10.6822H20.3052L26.7096 19.9756H29.0661L27.0403 17.0727C27.9488 16.2861 28.7458 15.3637 29.3793 14.3126C29.5464 14.0376 29.6578 13.8288 29.7135 13.7139C31.3007 10.818 31.2484 7.39645 29.5742 4.54577ZM27.6877 12.6523C27.6877 12.6523 27.5972 12.8402 27.4197 13.1291C26.9568 13.9018 26.3824 14.5875 25.7281 15.1827L25.2617 14.5144C25.8255 13.9854 26.3233 13.3832 26.727 12.7115C26.8871 12.4469 26.9672 12.2798 26.9707 12.2764C28.0567 10.3202 28.0323 8.02297 26.908 6.11208C25.7977 4.22207 23.8311 3.09433 21.6487 3.09433H11.5478C8.52655 3.09433 5.68979 4.68848 4.14089 7.25722C3.98078 7.52175 3.90072 7.68883 3.89724 7.69231C2.81127 9.64845 2.83563 11.9457 3.95989 13.8566C5.07023 15.7466 7.03682 16.8743 9.21921 16.8743H19.3201C19.9606 16.8743 20.5871 16.7978 21.1997 16.6585L21.6975 17.3686C20.9282 17.5705 20.1311 17.6784 19.3201 17.6784H9.21921C6.74792 17.6784 4.52377 16.401 3.26376 14.2604C1.99331 12.0989 1.96198 9.50226 3.18022 7.31291C3.18022 7.31291 3.27072 7.12496 3.44823 6.83606C5.13985 4.02715 8.24461 2.27985 11.5443 2.27985H21.6452C24.1165 2.27985 26.3407 3.55726 27.6007 5.69788C28.8711 7.85938 28.9025 10.456 27.6842 12.6453L27.6877 12.6523Z" fill="#DA0003"/>
</g>
<defs>
<clipPath id="clip0_2693_204784">
<rect width="209.078" height="20" fill="white"/>
</clipPath>
</defs>
</svg>

<svg width="210" height="20" fill="none" xmlns="http://www.w3.org/2000/svg"><g clip-path="url(#a)"><path d="M40.11 0h-2.433l-1.664 10.498a5.51 5.51 0 0 0 1.267 4.43 5.51 5.51 0 0 0 4.19 1.925h6.75c2.663 0 4.946-1.9 5.43-4.52L56.04 0h-2.433l-2.27 11.535a4.026 4.026 0 0 1-3.922 3.08h-5.078a4.025 4.025 0 0 1-3.095-1.444 4.023 4.023 0 0 1-.88-3.296L40.11 0Z" fill="#DA0003"/><path d="m56.864 0-2.422 12.485c-.55 3-3.168 5.18-6.224 5.18H41.47a6.324 6.324 0 0 1-6.255-7.29L36.857 0h-2.213l-1.58 8.942a9.395 9.395 0 0 0 2.056 7.692A9.395 9.395 0 0 0 42.34 20h5.078a9.392 9.392 0 0 0 9.15-7.191L59.148 0H56.86h.003ZM64.592 0h-2.395l-3.88 19.986h2.345L64.592 0ZM65.414 0l-3.93 19.986h2.388L67.757 0h-2.343Z" fill="#DA0003"/><path d="M157.893 0h-2.391l-3.885 19.986h2.346L157.893 0ZM158.719 0l-3.93 19.986h2.384L161.058 0h-2.339Z" fill="#fff"/><path d="M78.74 3.282c-3.951 0-7.181 3.279-7.181 7.23v.344a5.927 5.927 0 0 0 5.92 5.92h13.014l.422-2.157H77.618a3.768 3.768 0 0 1-3.717-4.39l.132-.796a4.829 4.829 0 0 1 4.78-4.048h13.894l.408-2.103H78.739Z" fill="#DA0003"/><path d="M77.48 17.581a6.735 6.735 0 0 1-6.729-6.728v-.345c0-4.396 3.59-8.037 7.989-8.037h14.532l.48-2.474h-14.94a10.19 10.19 0 0 0-10.086 8.548l-.132.797a9.13 9.13 0 0 0 2.046 7.417 9.13 9.13 0 0 0 6.982 3.234l12.252-.01.467-2.405H77.483l-.003.003ZM100.684 0l-1.852 9.62h12.026L116.831 0h-2.67l-4.762 7.313-7.769-.01L103.047 0h-2.363ZM99.864 0h-2.37l-3.885 19.986h2.409L99.864 0ZM112.611 19.986h2.249l.313-2.708c.23-2.081-.369-4.204-1.559-5.537-.773-.86-1.72-1.316-2.747-1.316H98.681l-1.837 9.558h2.325l1.42-7.303h8.378c1.211 0 2.346.536 3.115 1.47a4.026 4.026 0 0 1 .849 3.337l-.316 2.496-.004.003Z" fill="#DA0003"/><path d="M114.608 9.182 120.587 0h-2.805l-6.032 9.715c.915.198 1.754.7 2.461 1.49 1.34 1.496 2.015 3.86 1.761 6.164l-.303 2.617h2.36l.199-1.566a9.4 9.4 0 0 0-3.62-9.238Z" fill="#DA0003"/><path d="M191.426 19.986h-4.211L191.099 0h4.212l-3.885 19.986ZM196.085 19.986h-3.136L196.834 0h3.136l-3.885 19.986ZM199.663 19.986h-2.058L201.486 0h2.058l-3.885 19.986h.004ZM202.693 19.986h-1.521L205.06 0h1.521l-3.885 19.986h-.003ZM205.192 19.986h-.981L208.095 0h.982l-3.885 19.986ZM126.485 0l-1.782 9.144 2.332 7.602h2.353l6.07-8.246 1.609-8.5h-2.291l-1.409 7.09-4.772 6.815-1.598-4.98L128.741 0h-2.256ZM137.891 0l-1.661 8.768 2.479 7.974h2.088l6.446-8.545 1.511-8.2h-2.381c-.118.577-1.403 7.09-1.403 7.09l-4.785 6.77-1.574-4.94s1.706-8.823 1.727-8.924h-2.444l-.003.007Z" fill="#fff"/><path d="m149.571 0-1.574 8.535-6.801 9.018h-3.084l-2.468-7.943-5.847 7.943h-3.355l-2.566-8.364L125.665 0h-2.478l-1.792 9.172 3.376 10.814h6.213l3.703-5.318 1.674 5.318h6.213a2834.51 2834.51 0 0 0 7.561-10.814L151.927 0H149.571ZM187.327 0l-3.324 17.518h-2.726l-12.569-13.8h-1.27l-2.872 16.268h2.28l2.371-12.207 10.953 12.207h5.528L189.582 0h-2.255Z" fill="#fff"/><path d="M166.761 2.91h2.304l12.572 13.8h1.699L186.507 0h-2.451l-2.45 12.457L170.732 0h-5.558l-3.885 19.986h2.461l3.011-17.076Z" fill="#fff"/><path d="M29.574 4.546C27.9 1.699 24.938 0 21.645 0h-10.1C7.444 0 3.59 2.168 1.488 5.663a9.258 9.258 0 0 0-.335.599c-1.587 2.896-1.535 6.317.14 9.168 1.674 2.847 4.636 4.546 7.925 4.546H19.32c1.291 0 2.555-.223 3.752-.627l.439.627h2.22l-6.404-9.294h-2.3l2.714 3.892c-.139.01-.278.02-.42.02H9.218c-1.382 0-2.579-.689-3.286-1.89a3.854 3.854 0 0 1-.045-3.874l.06-.114S6 8.61 6.1 8.444c1.134-1.886 3.223-3.056 5.447-3.056h10.1c1.383 0 2.58.69 3.287 1.89a3.855 3.855 0 0 1 .045 3.874l-.06.115s-.052.104-.153.272a6.162 6.162 0 0 1-.835 1.079l-1.35-1.936h-2.277l6.405 9.294h2.356l-2.026-2.903a11.529 11.529 0 0 0 2.34-2.76c.166-.275.278-.484.334-.6 1.587-2.895 1.534-6.317-.14-9.167Zm-1.886 8.106s-.09.188-.268.477a9.104 9.104 0 0 1-1.692 2.054l-.466-.669a8.438 8.438 0 0 0 1.465-1.803c.16-.264.24-.431.244-.435 1.086-1.956 1.061-4.253-.063-6.164a6.048 6.048 0 0 0-5.26-3.018h-10.1c-3.021 0-5.858 1.594-7.407 4.163-.16.265-.24.432-.244.435-1.086 1.956-1.061 4.254.063 6.165a6.048 6.048 0 0 0 5.26 3.017h10.1c.64 0 1.267-.076 1.88-.215l.498.71c-.77.201-1.567.31-2.378.31H9.22c-2.472 0-4.696-1.278-5.956-3.419a6.932 6.932 0 0 1-.084-6.947s.09-.188.268-.477C5.14 4.027 8.245 2.28 11.544 2.28h10.101c2.471 0 4.696 1.277 5.956 3.418a6.932 6.932 0 0 1 .083 6.947l.004.007Z" fill="#DA0003"/></g><defs><clipPath id="a"><path fill="#fff" d="M0 0h209.078v20H0z"/></clipPath></defs></svg>
